icon/lg/grav.svg

<?xml version="1.0" encoding="UTF-8" standalone="no"?>
<svg viewBox="0 0 256 256" version="1.1" xmlns="http://www.w3.org/2000/svg" xmlns:xlink="http://www.w3.org/1999/xlink" preserveAspectRatio="xMidYMid" height="1em" width="1em">
  <g>
    <path d="M136.23263,94.9363384 C137.730513,93.438525 137.730513,91.0109485 136.23263,89.5143781 C134.734195,88.0165647 132.308638,88.0165647 130.810755,89.5143781 C129.312182,91.0109485 129.312182,93.438525 130.810755,94.9363384 C132.308638,96.4327707 134.734195,96.4327707 136.23263,94.9363384 Z M122.532873,97.801036 C121.0343,99.2974684 121.0343,101.725183 122.532873,103.222996 C124.028686,104.719429 126.456313,104.719429 127.954748,103.222996 C129.450561,101.725183 129.450561,99.2974684 127.954748,97.801036 C126.456313,96.3032226 124.028686,96.3032226 122.532873,97.801036 Z M146.298915,99.8161269 C143.955446,97.4719695 140.156726,97.4740412 137.814637,99.8161269 L132.824591,104.806076 C130.480433,107.150234 130.480433,110.948976 132.824591,113.290371 L138.30317,118.77089 C140.6465,121.115048 144.445359,121.112976 146.787448,118.77089 L151.777493,113.780941 C154.120962,111.436784 154.120962,107.638041 151.777493,105.294575 L146.298915,99.8161269 Z M194.411759,81.8139387 C200.743236,69.7560228 191.786705,62.712916 185.630306,56.9318672 C175.768726,47.6619973 165.932808,43.6544314 154.698756,56.4899121 C143.472154,69.3260833 150.604929,84.21265 160.874056,91.5602915 C171.147874,98.9077948 188.071315,93.86854 194.411759,81.8139387 Z M177.401263,76.8691518 C173.444849,72.1269737 180.840999,63.5174123 185.481304,68.6584549 C194.028355,78.1303812 181.364575,81.6111918 177.401263,76.8691518 L177.401263,76.8691518 Z M128.002414,-1.42108547e-14 C57.3087462,-1.42108547e-14 0,57.3084547 0,127.99558 C0,198.688093 57.3087462,256 128.002414,256 C198.691806,256 256,198.688093 256,127.99558 C256,57.3084547 198.691806,-1.42108547e-14 128.002414,-1.42108547e-14 L128.002414,-1.42108547e-14 Z M197.219032,148.973807 C183.871223,140.15266 176.243982,132.699226 169.599878,119.33547 C165.056424,128.491537 154.447766,142.106654 136.552639,152.817021 C127.61901,180.609229 85.1213276,233.797557 71.3673499,226.257942 C67.2949076,224.027726 66.5214775,221.089967 67.4411502,218.059399 C68.4275979,210.461776 84.1442615,193.000131 84.1442615,193.000131 C84.1442615,193.000131 84.4764805,196.664076 89.5043284,204.38296 C82.8633972,183.766584 100.476938,158.328616 105.142904,149.669196 C112.4749,147.332497 113.005927,137.918439 113.005927,137.918439 C113.474869,123.366791 106.974799,112.831549 100.675607,106.530927 C105.201401,112.054675 106.66631,120.402101 106.881259,128.04682 L106.881259,128.089358 C106.904161,128.953104 106.904161,129.800691 106.900712,130.645654 C106.685763,136.97376 104.771641,145.715355 100.675607,145.715355 L100.687748,145.7706 C96.4766508,145.590089 91.2777267,146.488915 86.632593,147.941566 L76.3634659,150.395522 C76.3634659,150.395522 81.839975,150.14485 84.7972485,152.699903 C81.503755,158.063166 74.1837614,164.718734 66.0194239,168.499936 C54.1406626,174.008906 50.7265879,163.047729 56.7577151,155.919132 C58.2386283,154.176724 59.7344416,152.707914 61.1487179,151.504553 C60.2384267,150.562636 59.6643556,149.301269 59.5134222,147.700424 C59.5120425,147.692276 59.5059721,147.684265 59.5040406,147.676117 C58.6759764,144.039103 59.1327776,139.317227 64.2791371,131.812553 C65.2952472,130.223863 66.5133376,128.595258 67.9727283,126.941103 C68.0193603,126.884478 68.0584043,126.831996 68.1055883,126.776751 C68.1682242,126.700652 68.2383103,126.628558 68.3030158,126.554393 C68.3399903,126.513235 68.3750333,126.472216 68.4140774,126.429126 C68.7813394,126.01134 69.1721934,125.603084 69.5899506,125.208915 C75.7226198,118.927214 85.4103636,112.39429 100.675607,106.530927 C118.478435,80.3633182 124.997957,75.4548544 124.997957,75.4548544 C126.968783,73.4395392 130.413762,70.933792 131.679864,70.2950288 C122.382974,54.1404653 120.505826,31.3672101 122.941593,25.2303874 C122.744165,25.5626824 122.56288,25.9021592 122.411946,26.2539278 C123.314787,24.1524313 123.919901,23.4766544 124.857785,22.370938 C127.396611,19.3671626 136.00216,17.79325 139.092156,24.1564366 C140.738213,27.5488562 141.048909,31.9432709 140.994275,35.2381842 C134.179646,34.8829628 127.998275,42.6638584 127.998275,42.6638584 C127.998275,42.6638584 133.64255,40.0003884 140.654744,39.9532926 C140.654744,39.9532926 142.523752,41.5784443 144.855769,44.6306967 C141.707139,50.543089 136.531117,63.0679581 140.279342,76.2168126 C140.900597,78.8081887 141.839861,81.0350899 143.006214,82.9296961 C143.050639,83.0113197 143.087751,83.0934957 143.132866,83.1777434 C143.226544,83.300386 143.310702,83.4020356 143.39831,83.5152866 C149.595823,92.8457872 160.955147,93.9372782 160.955147,93.9372782 C155.607359,91.2691125 151.251951,87.0195762 148.415949,81.8672085 C146.941796,79.1114804 146.038955,76.784863 145.484336,74.9495064 C142.476568,63.3321644 146.904683,56.5505017 149.439509,52.0038887 C155.271829,42.9569299 165.896767,37.4804158 177.316658,38.7848738 C193.344018,40.6136011 204.855655,55.089702 203.023622,71.1129219 C201.906521,80.9023653 196.066751,88.9998112 188.043414,93.4063796 C189.973126,98.6289077 187.910692,104.961019 187.910692,104.961019 C192.769947,111.073534 192.984206,114.597436 192.816441,117.870666 C186.640588,116.831795 180.640503,120.999708 180.640503,120.999708 C180.640503,120.999708 192.554998,118.155727 199.476825,124.329563 C203.978337,129.171319 206.980725,133.546951 208.769714,136.778333 C211.332132,141.387096 223.230485,141.7158 221.875395,150.004668 C220.519754,158.281382 211.445263,158.359552 197.219032,148.973807 L197.219032,148.973807 Z" fill="#221E1F"/>
  </g>
</svg>

<svg width="256" height="256" xmlns="http://www.w3.org/2000/svg" preserveAspectRatio="xMidYMid"><path d="M136.233 94.936a3.833 3.833 0 0 0 0-5.422 3.833 3.833 0 0 0-5.422 0 3.831 3.831 0 0 0 0 5.422 3.835 3.835 0 0 0 5.422 0Zm-13.7 2.865a3.831 3.831 0 0 0 0 5.422 3.835 3.835 0 0 0 5.422 0 3.833 3.833 0 1 0-5.422-5.422Zm23.766 2.015a5.999 5.999 0 0 0-8.484 0l-4.99 4.99a5.997 5.997 0 0 0 0 8.484l5.478 5.48a5.999 5.999 0 0 0 8.484 0l4.99-4.99a6 6 0 0 0 0-8.485l-5.478-5.479Zm48.113-18.002c6.331-12.058-2.625-19.101-8.782-24.882-9.861-9.27-19.697-13.278-30.931-.442-11.227 12.836-4.094 27.723 6.175 35.07 10.274 7.348 27.197 2.309 33.538-9.746Zm-17.01-4.945c-3.957-4.742 3.439-13.352 8.08-8.21 8.546 9.471-4.117 12.952-8.08 8.21ZM128.001 0C57.31 0 0 57.308 0 127.996 0 198.688 57.309 256 128.002 256 198.692 256 256 198.688 256 127.996 256 57.308 198.692 0 128.002 0Zm69.217 148.974c-13.348-8.821-20.975-16.275-27.62-29.639-4.543 9.157-15.151 22.772-33.046 33.482-8.934 27.792-51.432 80.98-65.186 73.44-4.072-2.23-4.846-5.167-3.926-8.198C68.428 210.462 84.144 193 84.144 193s.332 3.664 5.36 11.383c-6.64-20.616 10.973-46.054 15.639-54.714 7.332-2.337 7.863-11.75 7.863-11.75.469-14.552-6.031-25.087-12.33-31.388 4.525 5.524 5.99 13.871 6.205 21.516v.042c.023.864.023 1.712.02 2.557-.215 6.328-2.13 15.07-6.225 15.07l.012.055c-4.211-.18-9.41.718-14.055 2.17l-10.27 2.455s5.477-.251 8.434 2.304c-3.293 5.363-10.613 12.019-18.778 15.8-11.878 5.509-15.292-5.452-9.261-12.58a38.78 38.78 0 0 1 4.39-4.415c-.91-.942-1.484-2.204-1.635-3.805-.001-.008-.007-.016-.009-.024-.828-3.637-.371-8.359 4.775-15.863a39.714 39.714 0 0 1 3.694-4.872c.046-.057.085-.109.133-.164.062-.076.132-.148.197-.223.037-.04.072-.082.111-.125.367-.418.758-.826 1.176-1.22 6.133-6.282 15.82-12.815 31.086-18.678 17.802-26.168 24.322-31.076 24.322-31.076 1.97-2.015 5.416-4.521 6.682-5.16-9.297-16.155-11.174-38.928-8.738-45.065a8.821 8.821 0 0 0-.53 1.024c.903-2.102 1.508-2.777 2.446-3.883 2.539-3.004 11.144-4.578 14.234 1.785 1.646 3.393 1.957 7.787 1.902 11.082-6.814-.355-12.996 7.426-12.996 7.426s5.645-2.664 12.657-2.71c0 0 1.869 1.624 4.2 4.677-3.148 5.912-8.324 18.437-4.576 31.586.622 2.591 1.56 4.818 2.727 6.713.045.081.082.163.127.248.094.122.178.224.265.337 6.198 9.33 17.557 10.422 17.557 10.422a29.252 29.252 0 0 1-12.54-12.07c-1.473-2.756-2.376-5.082-2.93-6.917-3.008-11.618 1.42-18.4 3.955-22.946 5.832-9.047 16.457-14.524 27.877-13.22 16.027 1.83 27.539 16.306 25.707 32.329-1.117 9.79-6.957 17.887-14.98 22.293 1.93 5.223-.133 11.555-.133 11.555 4.859 6.113 5.073 9.636 4.905 12.91-6.175-1.04-12.175 3.129-12.175 3.129s11.914-2.844 18.836 3.33c4.501 4.841 7.504 9.217 9.293 12.448 2.562 4.61 14.46 4.938 13.105 13.227-1.355 8.276-10.43 8.355-24.656-1.031Z" fill="#221E1F"/></svg>
